X: 127
P: Systerpolska fr\aan Orsa
O: efter Bengt Jonsson
R: Orsa-polska
Z: John Chambers <jc@trillian.mit.edu>
N: Learned from Bengt Jonsson 1991
M: 3/4
L: 1/8
K: D
A- \
|: "D"A2 {dc}d>(e {fg}f)>e \
| "G"(e<d) (d>c) {cd}c>B \
| ({Bc}B/G/B) "A"A3 (A, \
| "A7"A)>(G {ED}E>G) "D"F>A |
| "A7"(A<G) (E/D/E/G/) {FG}F>{EF}E \
| "D"(D<F) (A>d) f>e \
| "G"(e<d) (d>c) c>B \
| "Em"{Bc}B>(A B>c) "A7"d>f \
| (e/f/)e/c/ "D"d3 :|
((3A/B/c/ \
|: "D"d)>({fd}f a>b) a>f \
| "D"(d>f) (ab) "Em"(g/a/g/f/ \
| "A7"ef) (g/a/g/e/) "D"{fg}f>d  \
| "A"(cd) ef e>(d \
| "A7"c<e) ({gf}gb) a>f |
| "D"(d>f) (ab) "Em"(g/a/g/f/ \
| "Em"ef) (g/a/g/e/)  "D"({fg}f>d) \
| "A7"(c<d) e{a^g}a (f/d/f) \
|1,3 (ec) "D"d3 d/c/ \
:|2,4  (ec) "D"d3 |]
